**kern	**kern	**dynam
*part1	*part1	*part1
*staff2	*staff1	*
*I"Piano	*	*
*clefF4	*clefG2	*
*k[b-e-a-]	*k[b-e-a-]	*
=1	=1	=1
*	*^	*
4E- 4e-	4b-	4g	.
8E- 8B-	8g	8e-	.
=	=	=	=
4.AA- 4.A-	(8fL	4.c	.
.	8e-)	.	.
.	8fJ	.	.
*	*v	*v	*
=	=	=
*^	*	*
(8GGLyy	[4.GG	4Bn 4g	.
8D	.	.	.
8GJ	.	(8d 8g 8bn	.
=	=	=	=
8BnL	4.GG]	4d 4g 4dd	.
8G	.	.	.
[8DJ	.	8d 8g 8bn	.
=	=	=	=
8GGL]	[4.GG	4Bn 4d 4g	.
8D	.	.	.
8GJ	.	8d 8g 8bn	.
=	=	=	=
*	*	*^	*
8BnL	4.GG]	8ddL	4d 4g	.
8G	.	8bn	.	.
8cJ)	.	8ee-J	8e- 8g	.
*v	*v	*	*	*
=	=	=	=
4GG: 4Bn:	4dd)	4d 4g	.
8G 8B	8dd	8bn	p
=	=	=	=
4G 4d	(8ffL	4bn	<
.	8dd)	.	>
8D 8d	8aa-J	8cc	]
*	*v	*v	*
=	=	=
*-	*-	*-
!!!system-decoration: {(s1,s2)}
